public/assets/images/one.svg

<svg width="26" height="41" viewBox="0 0 26 41" fill="none" xmlns="http://www.w3.org/2000/svg">
<path d="M1.26 10.54L0.96 10.24C0.32 9.6 0.28 8.94 0.84 8.26L4.68 3.4C6.24 1.48 8.02 0.519997 10.02 0.519997C11.7 0.519997 12.92 1.02 13.68 2.02C14.44 3.02 14.82 4.66 14.82 6.94V38.56C14.82 39.12 14.72 39.5 14.52 39.7C14.32 39.9 13.94 40 13.38 40H12.9C12.34 40 11.96 39.9 11.76 39.7C11.56 39.5 11.46 39.12 11.46 38.56V8.2C11.46 5.88 11.32 4.56 11.04 4.24C10.88 4.04 10.42 3.84 9.66 3.64C8.74 3.64 7.78 4.3 6.78 5.62L3.06 10.42C2.5 11.1 1.9 11.14 1.26 10.54ZM19.763 37.78C19.643 36.7 20.043 35.94 20.963 35.5C21.883 35.06 22.803 35.06 23.723 35.5C24.643 35.94 25.043 36.7 24.923 37.78C24.923 38.5 24.663 39.12 24.143 39.64C23.663 40.12 23.063 40.36 22.343 40.36C21.623 40.36 21.003 40.12 20.483 39.64C20.003 39.12 19.763 38.5 19.763 37.78Z" fill="url(#paint0_radial_169_2068)"/>
<defs>
<radialGradient id="paint0_radial_169_2068" cx="0" cy="0" r="1" gradientUnits="userSpaceOnUse" gradientTransform="translate(37.5484 48.0908) rotate(-130.663) scale(44.0936 41.2975)">
<stop stop-color="#C6B38A"/>
<stop offset="0.463601" stop-color="#F3C691"/>
<stop offset="1" stop-color="#B4703E"/>
</radialGradient>
</defs>
</svg>

<svg xmlns="http://www.w3.org/2000/svg" width="26" height="41" fill="none" xmlns:v="https://vecta.io/nano"><path d="M1.26 10.54l-.3-.3C.32 9.6.28 8.94.84 8.26L4.68 3.4C6.24 1.48 8.02.52 10.02.52c1.68 0 2.9.5 3.66 1.5s1.14 2.64 1.14 4.92v31.62c0 .56-.1.94-.3 1.14s-.58.3-1.14.3h-.48c-.56 0-.94-.1-1.14-.3s-.3-.58-.3-1.14V8.2c0-2.32-.14-3.64-.42-3.96-.16-.2-.62-.4-1.38-.6-.92 0-1.88.66-2.88 1.98l-3.72 4.8c-.56.68-1.16.72-1.8.12zm18.503 27.24c-.12-1.08.28-1.84 1.2-2.28s1.84-.44 2.76 0 1.32 1.2 1.2 2.28c0 .72-.26 1.34-.78 1.86-.48.48-1.08.72-1.8.72s-1.34-.24-1.86-.72c-.48-.52-.72-1.14-.72-1.86z" fill="url(#A)"/><defs><radialGradient id="A" cx="0" cy="0" r="1" gradientUnits="userSpaceOnUse" gradientTransform="translate(37.5484 48.0908) rotate(-130.663) scale(44.0936 41.2975)"><stop stop-color="#c6b38a"/><stop offset=".464" stop-color="#f3c691"/><stop offset="1" stop-color="#b4703e"/></radialGradient></defs></svg>
